assets/shopping-grey/ShoppingGrey13.svg

<svg xmlns="http://www.w3.org/2000/svg" data-name="Layer 3" viewBox="0 0 128 128"><path d="M83.123 18.916H44.877a9.558 9.558 0 00-9.548 9.548v71.072a9.558 9.558 0 009.548 9.548h38.246a9.558 9.558 0 009.548-9.548V28.464a9.558 9.558 0 00-9.548-9.548zM38.512 34.82h50.976v54.258H38.512zm6.365-12.72h38.246a6.372 6.372 0 016.365 6.365v3.173H38.512v-3.174a6.372 6.372 0 016.365-6.364zm38.246 83.8H44.877a6.372 6.372 0 01-6.365-6.365v-7.274h50.976v7.276a6.372 6.372 0 01-6.365 6.363z"/><path d="M68.069 57.243l-6.926 6.034-2.32-3.217a1.591 1.591 0 00-2.581 1.862l3.341 4.631a1.589 1.589 0 001.109.65 1.422 1.422 0 00.182.011 1.591 1.591 0 001.045-.392l8.241-7.179a1.591 1.591 0 10-2.09-2.4z"/><path d="M64 48.507a13.526 13.526 0 1013.526 13.526A13.541 13.541 0 0064 48.507zm0 23.869a10.343 10.343 0 1110.343-10.343A10.354 10.354 0 0164 72.376z"/><circle cx="64" cy="98.859" r="3.829"/></svg>

<svg id="Layer_3" data-name="Layer 3" xmlns="http://www.w3.org/2000/svg" viewBox="0 0 128 128"><title>Artboard 109</title><path d="M83.123,18.916H44.877a9.558,9.558,0,0,0-9.548,9.548V99.536a9.558,9.558,0,0,0,9.548,9.548H83.123a9.558,9.558,0,0,0,9.548-9.548V28.464A9.558,9.558,0,0,0,83.123,18.916ZM38.512,34.82H89.488V89.078H38.512ZM44.877,22.1H83.123a6.372,6.372,0,0,1,6.365,6.365v3.173H38.512V28.464A6.372,6.372,0,0,1,44.877,22.1Zm38.246,83.8H44.877a6.372,6.372,0,0,1-6.365-6.365V92.261H89.488v7.276A6.372,6.372,0,0,1,83.123,105.9Z"/><path d="M68.069,57.243l-6.926,6.034-2.32-3.217a1.591,1.591,0,0,0-2.581,1.862l3.341,4.631a1.589,1.589,0,0,0,1.109.65,1.422,1.422,0,0,0,.182.011,1.591,1.591,0,0,0,1.045-.392l8.241-7.179a1.591,1.591,0,1,0-2.09-2.4Z"/><path d="M64,48.507A13.526,13.526,0,1,0,77.526,62.033,13.541,13.541,0,0,0,64,48.507Zm0,23.869A10.343,10.343,0,1,1,74.343,62.033,10.354,10.354,0,0,1,64,72.376Z"/><circle cx="64" cy="98.859" r="3.829"/></svg>
